X:1
T:Title
%%score ( 1 2 3 ) { 4 | 5 }
L:1/8
Q:1/4=100
M:4/4
K:C
V:1 treble nm="Grand Piano, Piano"
V:2 treble 
V:3 treble 
V:4 bass nm="Grand Piano, Piano"
V:5 bass 
V:1
 C3 [B,D] [CE]2 C2 | [CE]2 [CF]2 [DG]2 [DG]2 | [Cc]2 BA G2 [Ge]2 | [Ad]2 [Gd]2 [Ec]4 | %4
w: 1.~See~ the~ mor ning~|sun~ as cen ding,~|ra diant~ * in~ the~|east ern~ sky;~|
 C3 [B,D] [CE]2 C2 | [CE]2 [CF]2 [DG]2 [DG]2 | [Cc]2 BA G2 [Ge]2 | [Ad]2 [Gd]2 [Ec]4 | %8
w: hear~ the~ an gel~|voi ces~ blen ding~|in~ their~ * praise~ to~|God~ on~ high!~|
 [Ge]3 [Ge] [Gd]2 d-[Fd] | [Ec]2 [Ec]2 [EB]2 [EB]2 | A4 z4 | [Dd]2 [DB]2 [Ec]4 |] %12
w: Al le lu ia!~ *|Al le lu ia!~|Glo|God~ on~ high!~|
V:2
 x8 | x8 | z2 C2 z4 | x8 | x8 | x8 | z2 C2 z4 | x8 | z4 z2 .G2 | x8 | C2 z A [CG]2 [Ec]2 | x8 |] %12
w: ||||||||||* ry~ * to~||
V:3
 x8 | x8 | x8 | x8 | x8 | x8 | x8 | x8 | x8 | x8 | z2 B,2 z4 | x8 |] %12
V:4
 E,3 G, G,2 G,2 | G,2[K:treble] C2 C2 B,2 | C2 C2 C2 C2 | C2[K:bass] B,2 C4 | E,3 G, G,2 G,2 | %5
 G,2[K:treble] C2 C2 B,2 | C2 C2 C2 C2 | C2 B,2 C4 | C3 C C2[K:bass] B,2 | C2 A,2 A,2 ^G,2 | %10
 A,2 F,2 G,2 A,2 | A,2 G,2 G,4 |] %12
V:5
 C,3 G,, C,2 E,2 | C,2 A,,2 G,,2 G,2 | A,2 G,F, E,2 C,2 | F,2 G,2 C,4 | C,3 G,, C,2 E,2 | %5
 C,2 A,,2 G,,2 G,2 | A,2 G,F, E,2 C,2 | F,2 G,2 C,4 | C,3 E, G,2 G,2 | A,2 C,D, E,2 E,2 | %10
 F,2 D,2 E,2 z2 | F,2 z2 C,4 |] %12

